img/iconmonstr-user-male-thin.svg

<svg width="24" height="24" xmlns="http://www.w3.org/2000/svg" fill-rule="evenodd" clip-rule="evenodd"><path d="M12 0c-5.083 0-8.465 4.949-3.733 13.678 1.596 2.945-1.725 3.641-5.09 4.418-3.073.709-3.187 2.235-3.177 4.904l.004 1h23.99l.004-.969c.012-2.688-.093-4.223-3.177-4.935-3.438-.794-6.639-1.49-5.09-4.418 4.719-8.912 1.251-13.678-3.731-13.678m0 1c1.89 0 3.39.764 4.225 2.15 1.354 2.251.866 5.824-1.377 10.06-.577 1.092-.673 2.078-.283 2.932.937 2.049 4.758 2.632 6.032 2.928 2.303.534 2.412 1.313 2.401 3.93h-21.998c-.01-2.615.09-3.396 2.401-3.93 1.157-.266 5.138-.919 6.049-2.94.387-.858.284-1.843-.304-2.929-2.231-4.115-2.744-7.764-1.405-10.012.84-1.412 2.353-2.189 4.259-2.189"/></svg>

<svg width="24" height="24" viewBox="0 0 24 24" fill="none" xmlns="http://www.w3.org/2000/svg">
<g clip-path="url(#clip0_802_24)">
<path fill-rule="evenodd" clip-rule="evenodd" d="M12 0C6.917 0 3.535 4.949 8.267 13.678C9.863 16.623 6.542 17.319 3.177 18.096C0.104001 18.805 -0.00999963 20.331 3.73751e-07 23L0.00400037 24H23.994L23.998 23.031C24.01 20.343 23.905 18.808 20.821 18.096C17.383 17.302 14.182 16.606 15.731 13.678C20.45 4.766 16.982 0 12 0ZM12 1C13.89 1 15.39 1.764 16.225 3.15C17.579 5.401 17.091 8.974 14.848 13.21C14.271 14.302 14.175 15.288 14.565 16.142C15.502 18.191 19.323 18.774 20.597 19.07C22.9 19.604 23.009 20.383 22.998 23H1C0.99 20.385 1.09 19.604 3.401 19.07C4.558 18.804 8.539 18.151 9.45 16.13C9.837 15.272 9.734 14.287 9.146 13.201C6.915 9.086 6.402 5.437 7.741 3.189C8.581 1.777 10.094 1 12 1Z" fill="#E6E6E6"/>
</g>
<defs>
<clipPath id="clip0_802_24">
<rect width="24" height="24" fill="white"/>
</clipPath>
</defs>
</svg>
